src/images/icons/soc-6-fb.svg

<svg width="48" height="40" viewBox="0 0 48 40" fill="none" xmlns="http://www.w3.org/2000/svg">
<g clip-path="url(#clip0_256_11)">
<path d="M39.2 6.59995C35.6 2.69995 30.5 0.299951 25.3 0.199951C25.1 0.199951 24.8 0.199951 24.6 0.199951C13 0.199951 5.2 9.69995 4.6 18.7999C4.2 24.4999 6.2 29.9999 10.2 34.0999C13.9 37.8999 19 40.0999 24 40.0999C24.2 40.0999 24.4 40.0999 24.5 40.0999C24.7 40.0999 24.8 40.0999 25 40.0999C35.2 40.0999 44.1 31.4 44.5 20.9C44.7 15.5999 42.8 10.5 39.2 6.59995ZM41.5 20.1C41.5 24.7 39.7 28.9 36.5 32.2C33.3 35.4 29 37.2 24.5 37.2H24.4C19.8 37.2 15.6 35.4 12.4 32.2C9.2 29 7.4 24.7 7.5 20.1C7.5 10.7 15.2 3.09995 24.6 3.09995H24.7C34 3.09995 41.6 10.8 41.5 20.1Z" fill="#003067"/>
<path d="M21.6 25.3C21.6 23.7 21.6 22.2 21.6 20.6C21.6 20.2 21.5 20 21.1 20.1C20.7 20.1 20.3 20.1 19.9 20.1C19.6 20.1 19.5 20 19.5 19.7C19.5 18.6 19.5 17.5 19.5 16.4C19.5 16.1 19.6 15.9 19.9 15.9C20.3 15.9 20.7 15.9 21.1 15.9C21.4 15.9 21.5 15.8 21.5 15.5C21.5 14.7 21.5 14 21.6 13.2C21.9 11 23.4 9.69998 25.6 9.59998C26.7 9.59998 27.7 9.59998 28.8 9.59998C29.1 9.59998 29.2 9.69998 29.2 9.99998C29.2 10.9 29.2 11.8 29.2 12.8C29.2 13.1 29.1 13.2 28.8 13.2C28.2 13.2 27.7 13.2 27.1 13.2C26.3 13.2 26 13.5 25.9 14.3C25.9 14.7 25.9 15.1 25.9 15.4C25.9 15.7 26 15.8 26.3 15.8C27.1 15.8 27.9 15.8 28.7 15.8C29.1 15.8 29.2 15.9 29.1 16.3C29 17.4 28.9 18.5 28.8 19.5C28.8 19.9 28.6 20 28.3 20C27.6 20 26.9 20 26.2 20C25.8 20 25.7 20.1 25.7 20.5C25.7 23.6 25.7 26.7 25.7 29.9C25.7 30.5 25.7 30.5 25.1 30.5C24.1 30.5 23.1 30.5 22 30.5C21.6 30.5 21.5 30.4 21.5 30C21.6 28.5 21.6 26.9 21.6 25.3Z" fill="#003067"/>
</g>
<defs>
<clipPath id="clip0_256_11">
<rect width="48" height="40" fill="white"/>
</clipPath>
</defs>
</svg>

<?xml version="1.0" encoding="utf-8"?>
<!-- Generator: Adobe Illustrator 26.3.1, SVG Export Plug-In . SVG Version: 6.00 Build 0)  -->
<svg version="1.1" id="Слой_1" xmlns="http://www.w3.org/2000/svg" xmlns:xlink="http://www.w3.org/1999/xlink" x="0px" y="0px"
	 viewBox="0 0 48 40" style="enable-background:new 0 0 48 40;" xml:space="preserve">
<style type="text/css">
	.st0{fill:#003067;}
</style>
<path class="st0" d="M39.2,6.6c-3.6-3.9-8.7-6.3-13.9-6.4c-0.2,0-0.5,0-0.7,0c-11.6,0-19.4,9.5-20,18.6C4.2,24.5,6.2,30,10.2,34.1
	c3.7,3.8,8.8,6,13.8,6c0.2,0,0.4,0,0.5,0c0.2,0,0.3,0,0.5,0c10.2,0,19.1-8.7,19.5-19.2C44.7,15.6,42.8,10.5,39.2,6.6z M41.5,20.1
	c0,4.6-1.8,8.8-5,12.1c-3.2,3.2-7.5,5-12,5h-0.1c-4.6,0-8.8-1.8-12-5s-5-7.5-4.9-12.1c0-9.4,7.7-17,17.1-17h0.1
	C34,3.1,41.6,10.8,41.5,20.1z"/>
<path class="st0" d="M21.6,25.3c0-1.6,0-3.1,0-4.7c0-0.4-0.1-0.6-0.5-0.5c-0.4,0-0.8,0-1.2,0c-0.3,0-0.4-0.1-0.4-0.4
	c0-1.1,0-2.2,0-3.3c0-0.3,0.1-0.5,0.4-0.5c0.4,0,0.8,0,1.2,0c0.3,0,0.4-0.1,0.4-0.4c0-0.8,0-1.5,0.1-2.3c0.3-2.2,1.8-3.5,4-3.6
	c1.1,0,2.1,0,3.2,0c0.3,0,0.4,0.1,0.4,0.4c0,0.9,0,1.8,0,2.8c0,0.3-0.1,0.4-0.4,0.4c-0.6,0-1.1,0-1.7,0c-0.8,0-1.1,0.3-1.2,1.1
	c0,0.4,0,0.8,0,1.1c0,0.3,0.1,0.4,0.4,0.4c0.8,0,1.6,0,2.4,0c0.4,0,0.5,0.1,0.4,0.5c-0.1,1.1-0.2,2.2-0.3,3.2c0,0.4-0.2,0.5-0.5,0.5
	c-0.7,0-1.4,0-2.1,0c-0.4,0-0.5,0.1-0.5,0.5c0,3.1,0,6.2,0,9.4c0,0.6,0,0.6-0.6,0.6c-1,0-2,0-3.1,0c-0.4,0-0.5-0.1-0.5-0.5
	C21.6,28.5,21.6,26.9,21.6,25.3z"/>
</svg>
